source/assets/img/arrow-right-orange.svg

<svg width="17" height="17" viewBox="0 0 17 17" fill="none" xmlns="http://www.w3.org/2000/svg">
<mask id="path-1-inside-1" fill="white">
<path fill-rule="evenodd" clip-rule="evenodd" d="M0.581291 10.2327L0.580942 7.06916L10.2529 7.07023L5.74784 2.56517L7.98182 0.331192L16.3014 8.65075L16.3013 8.65079L16.3013 8.6508L8.00372 16.9484L5.76384 14.7086L10.2387 10.2337L0.581291 10.2327Z"/>
</mask>
<path d="M0.580942 7.06916L0.581031 6.26916L-0.219146 6.26907L-0.219058 7.06925L0.580942 7.06916ZM0.581291 10.2327L-0.218708 10.2327L-0.21862 11.0326L0.581203 11.0327L0.581291 10.2327ZM10.2529 7.07023L10.2528 7.87023L12.1845 7.87044L10.8186 6.50455L10.2529 7.07023ZM5.74784 2.56517L5.18215 1.99948L4.61647 2.56517L5.18215 3.13085L5.74784 2.56517ZM7.98182 0.331192L8.5475 -0.234494L7.98182 -0.800179L7.41613 -0.234494L7.98182 0.331192ZM16.3014 8.65075L16.8671 9.21643L17.4327 8.65075L16.8671 8.08506L16.3014 8.65075ZM16.3013 8.65079L15.7356 8.0851L15.17 8.65079L15.7356 9.21647L16.3013 8.65079ZM16.3013 8.6508L16.867 9.21649L17.4327 8.6508L16.867 8.08512L16.3013 8.6508ZM8.00372 16.9484L7.43803 17.5141L8.00372 18.0798L8.5694 17.5141L8.00372 16.9484ZM5.76384 14.7086L5.19815 14.1429L4.63247 14.7086L5.19815 15.2742L5.76384 14.7086ZM10.2387 10.2337L10.8043 10.7994L12.1698 9.43394L10.2387 9.43373L10.2387 10.2337ZM-0.219058 7.06925L-0.218708 10.2327L1.38129 10.2326L1.38094 7.06907L-0.219058 7.06925ZM10.253 6.27023L0.581031 6.26916L0.580854 7.86916L10.2528 7.87023L10.253 6.27023ZM10.8186 6.50455L6.31352 1.99948L5.18215 3.13085L9.68721 7.63592L10.8186 6.50455ZM6.31352 3.13085L8.5475 0.896878L7.41613 -0.234494L5.18215 1.99948L6.31352 3.13085ZM7.41613 0.896878L15.7357 9.21643L16.8671 8.08506L8.5475 -0.234494L7.41613 0.896878ZM15.7357 8.08506L15.7356 8.0851L16.867 9.21647L16.8671 9.21643L15.7357 8.08506ZM16.867 8.08512L16.867 8.0851L15.7356 9.21647L15.7357 9.21649L16.867 8.08512ZM8.5694 17.5141L16.867 9.21649L15.7357 8.08512L7.43803 16.3827L8.5694 17.5141ZM5.19815 15.2742L7.43803 17.5141L8.5694 16.3827L6.32952 14.1429L5.19815 15.2742ZM9.67298 9.66804L5.19815 14.1429L6.32952 15.2742L10.8043 10.7994L9.67298 9.66804ZM0.581203 11.0327L10.2386 11.0337L10.2387 9.43373L0.58138 9.43266L0.581203 11.0327Z" fill="#E74A26" mask="url(#path-1-inside-1)"/>
</svg>

<svg width="17" height="17" fill="none" xmlns="http://www.w3.org/2000/svg"><mask id="a" fill="#fff"><path fill-rule="evenodd" clip-rule="evenodd" d="M.581 10.233V7.069l9.672.001-4.505-4.505L7.982.331l8.32 8.32-8.298 8.297-2.24-2.24 4.475-4.474-9.658-.001z"/></mask><path d="M.58 7.07l.001-.8h-.8v.8h.8zm.001 3.163h-.8v.8h.8v-.8zm9.672-3.163v.8h1.931L10.82 6.505l-.566.565zM5.748 2.565L5.182 2l-.566.566.566.566.566-.566zM7.982.331l.565-.565L7.982-.8l-.566.566.566.565zm8.32 8.32l.565.565.566-.565-.566-.566-.566.566zm0 0l-.566-.566-.566.566.566.565.565-.565zm0 0l.565.565.566-.565-.566-.566-.566.566zm-8.298 8.297l-.566.566.566.566.565-.566-.565-.566zm-2.24-2.24l-.566-.565-.566.566.566.565.566-.565zm4.475-4.474l.565.565 1.366-1.365h-1.931v.8zM-.22 7.069v3.164h1.6V7.069h-1.6zm10.472-.799H.581v1.6h9.672v-1.6zm.566.235L6.314 1.999 5.182 3.131l4.505 4.505 1.132-1.131zM6.314 3.13L8.547.897 7.417-.234 5.181 1.999l1.132 1.132zM7.416.897l8.32 8.32 1.131-1.132-8.32-8.32L7.417.898zm8.32 7.188l1.131 1.131-1.131-1.13zm1.131 0l-1.131 1.131 1.131-1.13zm-8.298 9.43l8.298-8.299-1.131-1.13-8.298 8.297 1.131 1.131zm-3.37-2.24l2.239 2.24 1.131-1.132-2.24-2.24-1.13 1.131zm4.474-5.607l-4.475 4.475 1.132 1.131 4.474-4.475-1.131-1.131zM.581 11.033h9.658v-1.6H.58v1.6z" fill="#E74A26" mask="url(#a)"/></svg>
